X:1
T:In dulci jubilo
T:In dulci jubilo
T:Carl Loewe
T:by IMSLP - Pubblico dominio
T:by IMSLP - Pubblico dominio
T:by IMSLP - Pubblico dominio
C:Carl Loewe
Z:by IMSLP - Pubblico dominio
%%score [ ( 1 2 3 4 ) ( 5 6 7 ) ]
L:1/8
Q:1/4=70
M:4/4
K:G
V:1 treble nm="S A"
V:2 treble 
V:3 treble 
V:4 treble 
V:5 bass nm="T B"
V:6 bass 
V:7 bass 
V:1
"^I Coro""^(Etwas bewegt)"!f! z4 | z4!f! d4 | B2 G2 A2 D2 | G4"^II Coro"!f! e4 | c2 A2 B2 E2 | %5
w: |In|dul\- ci ju\- bi\-|lo, *||
w: |O|Je\- su par\- vu\-|le, *||
w: |O|pa\- tris ca\- ri\-|tas, *||
w: |U\-|bi sunt gau\- di\-|a? *||
 A4 z4 |!p!"^I" [Ad]2 [Ad]2 [Ad]2 [Ad]2 | d4 [FAd]2 d2 | [Bd]2 [Bd]2 [Bd]2 [Bd]2 | [Bd]4 z2!f! G2 | %10
w: |||||
w: |||||
w: |||||
w: |||||
 B4 G4 | d4 G4 | (e2 gf g2 fe) | d4 d4 | d4 e4 | (A2 B2) c4 | !fermata!B8 | %17
w: |||||||
w: |||||||
w: |||||||
w: |||||||
"^II"!p!"^Breiter" E4 A4 | G4 F4 | !fermata!G8 |"^I"!f! [Ee]4 [Ac]4 | [GA]4 [Fd]4 | %22
w: |||||
w: |||||
w: |||||
w: |||||
 !fermata!G8!D.C.! |] %23
w: |
w: |
w: |
w: |
V:2
 D4 | D4 D4 | D4 D4 | D4 E4 | E2 E2 E2 E2 | E4 x4 | [DF]2 [DF]2 [DF]2 [DF]2 | D4 D2 D2 | %8
w: In\-|dul\- ci|ju- bi\-|lo, nun|sin\- get und seid|froh!|Un\- sers Her\- zens|Won- ne liegt|
w: O|Je\- su|par- vu\-|le, nach|dir ist mir so|weh!|Tröst mir mein Ge\-|mü te, o|
w: O|pa\- tris|ca\- ri-|tas, o|na\- ti le\- ni\-|tas!|Wir all wärn ver\-|dor- ben per|
w: U\-|bi sunt|gau- di\-|a? nir\-|gend mehr als all\-|da,|da die En\- gel|sin\- gen wohl|
 [DG]2 [DG]2 [DG]2 [DG]2 | [DG]4 x2 G2 | G4 G4 | G4 G4 | G8 | G4 G4 | G4 G4 | G4 F4 | G8 | E4 E4 | %18
w: in prae\- se\- pi\-|o und|leuch\- tet|als die|Son\-|ne ma\-|tris in|gre\- mi\-|o.|Al\- pha|
w: pu\- er op\- ti\-|me, durch|al\- le|dei\- ne|Gü|te, o|prin\- ceps|glo\- ri\-|ae!|Tra\- he|
w: nos\- tra cri\- mi\-|na, so|hat er|uns er\-|wor\-|ben coe\-|lo\- rum|gau\- di\-|a!|E\- ya,|
w: no\- va can\- ti\-|ca und|da die|Schel\- len|klin\-|gen in|re\- gis|cu\- ri\-|a.|E\- ya|
 D4 C4 | B,8 | E4 E4 | D4 C4 | B,8 |] %23
w: es et|O,|Al\- pha|es et|O!|
w: me post|te,|tra\- he|me post|te!|
w: wärn wir|da,|e\- ya,|wärn wir\-|da!|
w: wärn wir|da,|e\- ya,|wärn wir\-|da!|
V:3
 x4 | x8 | x8 | x8 | x8 | x8 | x8 | (A3 B) x4 | x8 | x8 | x8 | x8 | x8 | x8 | x8 | x8 | x8 | x8 | %18
 x8 | x8 | x8 | x8 | G8 |] %23
V:4
 x4 | x8 | x8 | x8 | x8 | x8 | x8 | (F3 G) x4 | x8 | x8 | x8 | x8 | x8 | x8 | x8 | x8 | x8 | x8 | %18
 x8 | x8 | x8 | x8 | x8 |] %23
V:5
!f! B,4 | B,4 B,4 | B,4 C4 | B,4 B4 | C2 C2 D2 D2 | C4 z4 |!p! [A,C]2 [A,C]2 [A,C]2 [A,C]2 | %7
 C4 [A,C]2 [D,C]2 | B,2 B,2 B,2 B,2 | B,4 z2!f! B,2 | D4 B,4 | B,4 B,4 | (C2 ED E2 DC) | B,4 B,4 | %14
 B,4 C4 | (C2 B,2) (A,2 D2) | D8 |!p! C4 C4 | B4 A4 | !fermata!G8 |!f! G4 A4 | A4 A4 | G8 |] %23
V:6
 G,4 | G,4 G,4 | G,4 G,4 | G,4 ^G4 | A2 A2 E,2 E,2 | A,4 x4 | D,2 D,2 D,2 D,2 | D,4 D,2 D,2 | %8
 [G,,G,]2 [G,,G,]2 [G,,G,]2 [G,,G,]2 | [G,,G,]4 x2 G,2 | G,4 G,4 | G,4 G,4 | C8 | G,4 G,4 | %14
 G,4 C,4 | D,4 D,4 | !fermata!G,8 | C,4 C,4 | D,4 D,4 | E,8 | C,4 C,4 | D,4 E,4 | !fermata!G,8 |] %23
V:7
 x4 | x8 | x8 | x8 | x8 | x8 | x8 | (A,3 B,) x4 | x8 | x8 | x8 | x8 | x8 | x8 | x8 | x8 | x8 | x8 | %18
 x8 | x8 | x8 | x8 | x8 |] %23

